static/images/immudb/runs-on/linux.svg

<svg width="75" height="80" viewBox="0 0 75 80" fill="none" xmlns="http://www.w3.org/2000/svg">
<path d="M10.9512 67.3481C10.9512 67.3481 3.38948 67.6577 1.9302 69.1612C0.470915 70.6647 0.470915 73.1853 1.70909 74.1581C2.94727 75.131 6.92714 76.1923 14.7542 76.5903C20.5029 77.2978 19.3089 79.0666 23.5541 79.0224C23.9079 79.0224 28.3742 80.4375 33.9018 79.8626C39.4294 79.2877 41.5962 77.5189 43.9399 77.5189C46.2836 77.5189 53.0936 79.951 57.5599 79.951C62.0261 79.951 65.0331 80.1721 66.9346 78.3591C68.8361 76.546 69.4995 76.1481 69.6321 75.0868C69.7648 74.0255 70.0743 72.9642 69.411 72.2124C68.7477 71.4607 51.3689 67.7461 51.3689 67.7461L10.9512 67.3481Z" fill="#A7ACB3"/>
<path d="M41.5077 72.2124C40.2253 72.522 36.8203 74.4235 36.2012 74.6446C35.5822 74.8657 33.7691 76.325 31.735 76.7672C29.7008 77.2094 26.1189 76.2365 26.1189 76.2365C26.1189 76.2365 17.8496 73.4948 17.4074 73.4948C16.9652 73.4948 10.6417 71.6818 10.1995 71.3722C9.75726 71.0627 8.74018 69.6918 9.35927 68.719C9.97836 67.7461 10.8628 67.0828 10.8628 67.0828C10.8628 67.0828 9.58037 63.103 9.88992 60.7593C10.1995 58.4156 12.3221 57.1332 13.7813 56.7352C15.2848 56.293 15.6828 55.6739 15.6828 55.6739C15.6828 55.6739 16.4346 54.7452 16.7441 54.2146C17.0537 53.6839 17.8939 53.2417 17.8939 53.2417L18.115 52.2689C18.115 52.2689 17.2748 49.6156 17.6728 48.7754C18.115 47.9353 19.7954 47.4046 20.326 45.5916C20.8567 43.7785 21.1662 39.1353 22.7581 36.3494C24.3501 33.6077 24.1732 34.2711 25.3229 33.0771C26.4285 31.8831 28.5068 28.7877 28.9048 28.0359C29.347 27.2842 30.8063 25.6038 30.8063 24.5425C30.8063 23.4812 29.5239 14.5928 29.8335 11.7185C30.143 8.84414 31.2043 6.72155 32.4867 5.04116C33.7691 3.36077 35.6706 1.63617 35.6706 1.63617C35.6706 1.63617 37.3952 0 40.1369 0C42.8786 0 46.5931 0.972856 48.3177 2.43214C49.9981 3.93564 52.2534 4.99694 53.182 7.73862C53.8011 9.86122 54.6413 14.4602 54.8182 15.8752C54.995 17.2903 54.5086 19.5898 54.7739 21.5355C55.0393 23.437 55.791 24.7636 56.3659 25.5596C56.9408 26.3555 64.8563 36.1725 66.2271 41.5675C67.5979 46.9624 67.3768 49.8367 67.3768 51.2076C67.3768 52.5784 66.9346 54.3915 66.9346 54.3915C66.9346 54.3915 68.1286 54.8779 68.6592 55.7181C69.1899 56.5583 68.9688 60.0075 69.0572 60.4497C69.1899 60.8919 69.809 61.6437 70.207 61.9532C70.605 62.2628 71.7547 63.103 72.418 63.1914C73.0371 63.2798 74.2753 64.2969 74.4964 65.2698C74.7175 66.2426 75.027 67.2597 73.8773 68.0115C72.7276 68.7632 67.1115 71.9471 66.7578 72.2566C66.3156 72.6104 63.5739 75.131 63.1317 75.6616C62.6894 76.1923 60.3015 77.6958 59.4613 77.7842C58.6211 77.8727 55.3046 78.0053 53.0493 76.1039C52.1207 75.3079 50.4845 73.539 49.0252 73.2295C47.5217 72.92 43.2766 72.1682 43.2766 72.1682C43.2766 72.1682 42.7901 71.9029 41.5077 72.2124Z" fill="black"/>
<path d="M10.9069 70.7531C10.9069 70.7531 15.7712 72.345 16.9652 72.6546C18.1149 72.9641 25.6767 75.3963 26.3842 75.5289C27.1359 75.6174 30.6736 76.7229 31.956 75.7943C33.2384 74.8214 35.4052 72.3008 33.15 68.4536C30.8063 64.4295 29.347 63.6778 29.347 63.6778L27.5339 61.4667L26.2515 59.3441C26.2515 59.3441 25.4998 57.2216 24.8807 56.6025C24.2616 55.9834 24.1289 54.5683 22.537 53.7281C21.4315 53.1532 19.132 53.0648 18.2918 53.6839C17.4516 54.303 15.727 56.6467 15.727 56.6467C15.727 56.6467 13.2949 57.31 12.7642 57.6195C12.2336 57.9291 10.9512 58.9904 10.7301 59.7421C10.509 60.4939 10.2879 61.7763 10.6416 63.0145C10.9512 64.2969 11.3049 66.3752 11.4818 66.6406C11.7029 66.9943 11.6145 67.4808 11.6145 67.4808C11.6145 67.4808 9.7572 68.321 9.7572 69.0727C9.7572 69.8245 10.3763 70.3993 10.3763 70.3993L10.9069 70.7531Z" fill="#F5C65D"/>
<path d="M17.1864 71.0185C17.1864 71.0185 18.0708 71.328 19.2205 71.6375C20.3703 71.9471 26.6938 74.1581 27.4014 74.2466C28.1531 74.335 29.8335 74.7772 31.1159 73.8044C32.3983 72.8315 34.5209 71.9029 32.9289 68.5863C30.9832 64.5622 29.126 63.8105 29.126 63.8105L27.4456 61.6879L26.0305 59.4769C26.0305 59.4769 25.2788 57.6196 24.6597 56.7352C24.129 55.9834 23.4215 54.303 22.2275 53.8608C21.0778 53.4186 19.2205 53.1533 18.3803 53.8166C17.5401 54.4357 16.4788 56.4256 16.4788 56.4256C16.4788 56.4256 15.1964 58.5482 14.6658 58.8578C14.1351 59.1673 13.1623 60.5382 12.9854 61.2899C12.7643 62.0417 12.897 62.3512 13.2065 63.6336C13.5161 64.916 14.6216 66.4195 14.5331 66.729C14.4447 67.0386 14.1351 67.7019 14.1351 67.7019C14.1351 67.7019 13.2507 68.2768 13.2507 69.0285C13.2507 69.7803 15.506 70.3109 15.506 70.3109L17.1864 71.0185Z" fill="#F7D285"/>
<path d="M53.0051 74.8214C53.0051 74.8214 51.5458 73.8044 51.6342 71.2396C51.7227 67.8788 52.8724 66.5964 52.8724 65.2698C52.8724 63.9431 52.6513 62.3512 52.6513 62.3512C52.6513 62.3512 52.2975 57.7522 52.4744 56.4256C52.6513 55.099 53.2704 53.8608 54.199 53.7282C55.1277 53.5955 56.4543 54.5684 56.6754 54.9221C57.2503 55.9834 58.1789 57.7965 58.1789 57.7965C58.1789 57.7965 59.2844 59.698 60.4784 59.6095C61.6723 59.5211 63.9276 56.0276 65.1658 55.2759C65.9617 54.7895 67.1557 54.8337 67.5095 55.0548C67.8632 55.2759 68.5708 56.0276 68.6592 56.9121C68.7476 57.7522 68.3054 59.6095 68.5265 60.5381C68.7477 61.4668 69.7205 62.5281 70.5165 63.0145C71.3125 63.5009 73.3466 64.2969 73.7004 64.7833C74.0541 65.2698 74.4963 66.4195 73.7888 67.127C73.0813 67.8346 71.4009 68.6748 71.4009 68.6748L68.9245 70.2225C68.9245 70.2225 66.8019 71.3722 66.3597 71.726C65.9175 72.0798 63.3085 74.5561 62.6894 75.0425C62.0703 75.529 61.3628 76.4576 60.3899 76.7672C59.6382 76.9883 57.7367 77.342 56.8523 76.9883C55.9236 76.6345 54.7297 76.1038 54.7297 76.1038L53.0051 74.8214Z" fill="#F5C860"/>
<path d="M55.3488 60.7593C55.3488 60.7593 55.0393 61.4668 55.2162 62.1743C55.4373 62.8819 55.1277 65.0045 54.7297 66.4195C54.2875 67.8346 53.182 69.3381 54.0222 71.3722C54.8624 73.4064 57.781 75.3521 59.594 75.1752C61.4513 75.0426 63.8392 72.5662 64.9005 71.8587C65.9618 71.1511 68.9246 70.1783 69.411 69.7361C69.8974 69.2939 71.4452 68.8959 71.7989 68.5421C72.1527 68.1883 74.0984 67.2597 74.0984 66.4195C74.0984 65.5793 74.2311 65.0487 73.3024 64.4296C72.3738 63.8105 70.605 63.0145 70.3839 62.8819C70.1628 62.7492 68.8804 61.3784 68.7035 61.113C68.4824 60.8477 68.4824 58.902 68.4382 58.4156C68.3497 57.9291 67.1558 57.4427 66.4482 57.5754C65.7407 57.708 64.8121 58.902 63.7508 60.4939C62.6895 62.0417 61.8935 62.5281 61.186 62.5281C60.4784 62.5281 58.9307 62.2628 58.2232 61.7321C57.5156 61.2457 56.8966 60.3613 56.189 60.3171C55.4815 60.2728 55.3488 60.7593 55.3488 60.7593Z" fill="#F7D285"/>
<path d="M33.7249 24.852C33.7249 24.852 34.5651 25.1173 35.2726 25.6922C35.9801 26.2671 37.6605 27.5937 39.3851 27.6821C41.0655 27.7706 42.1268 27.4168 43.0555 26.4882C43.9841 25.5596 44.8243 24.6309 45.2665 24.454C45.7087 24.2329 46.5931 23.8792 46.5931 23.8792L48.0082 22.7294C48.0082 22.7294 48.1408 24.4098 48.6273 25.4711C49.1137 26.5324 50.5288 28.4339 50.8825 30.0701C51.2363 31.7062 51.5901 33.7404 52.386 34.8901C53.182 36.0399 55.6584 38.9142 56.189 40.9041C56.7639 42.8941 57.4714 46.2991 56.985 48.3774C56.4986 50.5 56.1448 53.8166 56.1448 53.8166C56.1448 53.8166 55.1719 53.1975 54.5086 53.1975C53.8895 53.1975 53.5358 53.3302 52.9609 53.7724C52.2534 54.2588 51.7669 55.895 51.7669 56.7352C51.7669 57.5754 51.7669 62.3954 51.7669 62.3954C51.7669 62.3954 49.2906 64.4296 48.8484 64.9602C48.4062 65.4466 44.6032 68.719 43.6303 69.117C42.6575 69.5592 39.0314 70.6647 37.0414 69.736C35.0515 68.8074 34.5209 68.719 34.2998 68.4094C34.0787 68.1441 31.1159 64.4738 31.1159 64.4738L30.7621 64.0758C30.7621 64.0758 32.9289 64.3411 33.548 63.4567C34.1671 62.5281 34.2998 61.5552 33.9902 60.8477C33.548 59.7864 33.1058 59.0789 32.4425 58.3713C30.9832 56.8678 27.8435 55.1874 27.4013 54.7452C26.9591 54.303 24.4828 51.8267 24.3059 50.7654C24.0848 49.7041 23.6868 47.7141 24.4385 45.7684C25.2345 43.7785 27.2687 41.0368 27.8435 39.6217C28.4184 38.2067 28.8164 36.7916 28.8164 35.8188C28.8164 34.8459 28.728 33.9173 29.3028 32.856C29.8777 31.7947 30.5852 31.2198 31.1601 30.4681C31.735 29.6721 32.8405 28.6108 33.2827 27.5053C33.7249 26.3555 33.7249 25.25 33.7249 25.25V24.852Z" fill="white"/>
<path d="M36.7319 43.0709C36.555 45.0166 36.2454 46.9181 35.9801 48.8638C35.6263 51.3844 35.8917 53.7723 35.8917 56.2929C35.8917 56.2045 36.2454 55.9392 36.2454 55.7623C36.2454 53.2417 35.9801 50.8096 36.3339 48.3332C36.5992 46.3875 36.9087 44.486 37.0856 42.5403C37.0856 42.6287 36.7761 42.8941 36.7319 43.0709Z" fill="#C0C0C0"/>
<path d="M51.8554 33.8731C51.8554 33.8731 50.3519 34.6691 49.9539 34.7133C49.5117 34.8017 47.3891 34.9786 46.9911 34.9786C46.5489 34.9786 46.1952 35.4208 46.4163 35.5977C46.6374 35.8188 49.7328 36.7917 50.5288 37.2781C51.3248 37.7645 53.3589 38.6931 54.3318 38.9585C55.3046 39.2238 55.6142 39.1796 55.6142 39.1796C55.6142 39.1796 54.6855 37.4107 54.4202 37.1454C54.1549 36.8801 53.8453 36.3494 53.2262 35.7304C52.6072 35.1113 52.3861 34.5364 52.2534 34.2268C52.1207 33.9615 51.8996 33.652 51.8996 33.652" fill="#C4C4C4"/>
<path d="M29.745 32.1484C29.745 32.1484 29.8776 33.6962 30.3199 34.4037C30.7621 35.1112 31.8234 36.1725 31.8234 36.1725C31.8234 36.1725 29.0817 37.4991 28.7279 38.0298C28.3741 38.5162 28.3741 38.5162 28.3741 38.5162L28.551 37.4549C28.551 37.4549 28.8164 36.6147 28.9048 36.2167C28.9932 35.7303 28.949 34.8459 28.949 34.0941C28.8606 33.254 29.745 32.1484 29.745 32.1484Z" fill="#C4C4C4"/>
<path d="M56.1448 53.8166L56.2775 52.9764C56.2775 52.9764 54.9509 52.1362 53.8454 52.1362C52.6956 52.1362 51.5901 52.8438 51.3248 53.2417C51.0594 53.684 50.0424 55.3643 49.8213 56.6467C49.6886 57.5754 49.9097 60.0517 50.175 60.9804C50.4404 61.909 50.4404 63.5452 50.4404 63.5452L51.8112 62.3954C51.8112 62.3954 51.8996 60.3613 51.8996 59.5653C51.8996 58.7693 51.6785 57.1332 51.8996 56.0719C52.1207 55.0106 52.3861 54.5684 53.0052 53.7724C53.6685 52.9764 54.9509 53.286 55.3489 53.4629C55.7026 53.6397 56.1448 53.8166 56.1448 53.8166Z" fill="#C4C4C4"/>
<path d="M37.8374 15.6541C37.6163 17.6441 35.9359 19.2802 34.4324 19.1034C32.9289 18.9265 32.0445 17.5114 32.2656 15.5215C32.4867 13.5315 34.2555 11.7627 35.759 11.9396C37.2625 12.1165 38.0143 13.6642 37.8374 15.6541Z" fill="white"/>
<path d="M48.4504 15.3004C48.3178 16.5385 47.1238 18.3516 46.0183 18.9265C45.3992 19.236 44.5148 18.3516 43.8072 17.9094C42.2153 16.8923 41.2425 17.025 41.4636 15.035C41.6847 13.0451 43.4977 11.3205 45.3992 11.4974C47.2565 11.6743 48.6715 13.3104 48.4504 15.3004Z" fill="white"/>
<path d="M37.5721 16.2732C37.5721 17.4229 36.7319 18.3516 35.7148 18.3516C34.6977 18.3516 33.8575 17.4229 33.8575 16.2732C33.8575 15.1235 34.6977 14.1948 35.7148 14.1948C36.7319 14.1948 37.5721 15.1235 37.5721 16.2732Z" fill="black"/>
<path d="M46.3278 16.0521C46.3278 17.2019 45.4876 18.1305 44.4705 18.1305C44.0725 18.1305 43.7188 17.9978 43.4534 17.7767C42.967 17.3787 42.6575 16.7596 42.6575 16.0521C42.6575 14.9024 43.4977 13.9737 44.5147 13.9737C45.4876 13.9295 46.3278 14.8582 46.3278 16.0521Z" fill="black"/>
<path d="M36.6435 15.1677C36.6435 15.5215 36.3782 15.7868 36.0686 15.7868C35.7591 15.7868 35.4938 15.5215 35.4938 15.1677C35.4938 14.814 35.7591 14.5486 36.0686 14.5486C36.4224 14.5929 36.6435 14.8582 36.6435 15.1677Z" fill="white"/>
<path d="M45.9298 15.7426C45.9298 16.0963 45.6644 16.3617 45.3549 16.3617C45.0454 16.3617 44.78 16.0963 44.78 15.7426C44.78 15.3888 45.0454 15.1235 45.3549 15.1235C45.6644 15.1235 45.9298 15.433 45.9298 15.7426Z" fill="white"/>
<path d="M47.787 20.3858L47.6102 21.6239C47.6102 21.6239 46.8584 22.0661 46.7257 22.1546C46.5489 22.243 45.4433 22.5084 45.1338 22.5084C44.8242 22.5084 43.9841 22.9948 43.2765 23.0832C42.569 23.1717 41.9057 23.8792 41.6846 24.1887C41.4635 24.4983 40.5348 25.0289 40.2695 25.1616C40.0042 25.25 39.164 25.6038 38.7218 25.5154C38.2796 25.4711 37.4394 25.2058 37.3067 25.0289C37.1298 24.852 35.8032 24.6752 35.8032 24.6752L34.8746 24.1445L34.1228 23.5254L33.5922 23.039L33.2384 22.6852L33.7248 22.8621C33.7248 22.8621 34.6093 23.6581 35.0515 23.9234C35.4937 24.1887 36.4223 24.1887 36.7319 24.2772C37.0414 24.3656 37.7489 25.1174 38.368 25.1174C38.9871 25.1174 40.0484 24.8963 40.5791 24.5867C41.1097 24.2772 42.1268 23.1717 42.7017 22.8179C43.2765 22.5084 43.9398 22.1104 44.5147 22.1104C45.0896 22.1104 45.3991 22.1546 46.0624 22.0661C46.77 21.9777 47.1237 21.6239 47.2122 21.3144C47.3006 21.0048 47.3006 20.2531 47.3006 20.2531L45.8855 19.5456C45.8855 19.5456 44.7358 19.0149 44.4705 18.7496C44.2052 18.4843 42.9228 17.4672 42.4363 17.3345C41.9499 17.1576 41.5961 16.8039 40.7559 16.8039C39.9157 16.8039 39.164 16.4943 38.5449 16.8481C37.9258 17.2019 36.953 17.9094 36.7761 18.1747C36.5992 18.44 35.7148 18.8823 35.4052 18.9265C35.0957 18.9707 34.3882 19.4129 34.1228 19.5456C33.8575 19.7224 33.2384 19.9878 32.8847 20.7837C32.5751 21.5797 32.4424 22.7295 32.8847 23.3485C33.3269 23.9234 34.6535 24.8521 35.2284 24.9847C35.8032 25.1616 36.7761 26.2229 37.0856 26.3556C37.3952 26.5324 38.4122 27.1073 39.4293 27.1957C40.4464 27.2842 41.2424 27.4169 42.0383 26.8862C42.8343 26.3556 43.5418 25.4711 44.1609 24.9847C44.78 24.4983 45.4876 23.7465 45.974 23.6581C46.4604 23.5696 47.0353 23.2159 47.2564 23.0832C47.4775 22.9063 48.2292 22.3315 48.2292 21.845C48.2292 21.3586 48.2735 20.43 48.2735 20.43L47.787 20.2089" fill="#F3C55C"/>
<path d="M45.0012 19.2802C45.0012 19.2802 44.2936 19.5456 44.1167 19.4571C43.8956 19.3687 41.6846 18.2189 41.1097 18.2189C40.5349 18.2189 37.9258 18.6611 37.2183 19.1033C36.5108 19.5898 35.2726 20.3857 35.0515 21.0048C34.8304 21.6239 35.0073 22.5526 35.6706 22.8621C36.3781 23.1717 37.1741 23.4812 37.6163 24.1445C38.1027 24.7636 38.1027 25.1616 38.6776 25.1616C39.2525 25.1616 39.9158 24.9405 40.4464 24.5867C40.9771 24.2329 41.9941 23.3928 42.6132 22.9063C43.2323 22.4199 43.6745 22.1988 44.3821 22.1988C45.0896 22.1988 46.1951 22.1988 46.6373 21.9777C47.0795 21.7566 47.2564 21.6681 47.2564 21.3586C47.2564 21.0491 47.6102 20.5626 47.3449 20.2973C47.0795 20.032 46.0182 19.6782 45.7087 19.5013C45.3549 19.3687 45.0012 19.2802 45.0012 19.2802Z" fill="#F8D281"/>
<path d="M36.8645 25.0731C36.8645 25.0731 38.6333 26.4882 39.2082 26.4882C39.7831 26.4882 40.4906 26.7535 40.7559 26.7535C40.8886 26.7535 40.5348 26.9304 41.5961 26.6208L41.5077 26.9746C41.5077 26.9746 42.6132 26.5766 42.8343 26.1344C43.1881 25.4711 44.2051 25.0289 44.3378 24.852C44.5589 24.4098 45.2664 23.9676 45.7529 23.7023C46.2393 23.4369 46.4604 23.4369 46.9026 23.2601C47.2121 23.1274 48.1408 22.0661 48.1408 22.0661L47.3448 21.9777C47.3448 21.9777 45.4433 22.5083 45.2664 22.5083C45.0896 22.5083 43.984 23.039 43.4534 23.039C42.7459 23.039 41.8614 24.056 41.6846 24.2771C41.5077 24.4982 40.579 25.0731 40.579 25.0731L39.2082 25.5595L37.97 25.3384L36.8645 25.0731Z" fill="#F8D281"/>
</svg>

<svg xmlns="http://www.w3.org/2000/svg" width="75" height="80" fill="none" xmlns:v="https://vecta.io/nano"><path d="M10.951 67.348s-7.562.31-9.021 1.813-1.459 4.024-.221 4.997 5.218 2.034 13.045 2.432c5.749.707 4.555 2.476 8.8 2.432.354 0 4.82 1.415 10.348.84s7.694-2.344 10.038-2.344 9.154 2.432 13.62 2.432 7.473.221 9.375-1.592 2.565-2.211 2.697-3.272.442-2.123-.221-2.874-18.042-4.466-18.042-4.466l-40.418-.398z" fill="#a7acb3"/><path d="M41.508 72.212c-1.282.31-4.687 2.211-5.306 2.432s-2.432 1.68-4.466 2.123-5.616-.531-5.616-.531l-8.711-2.742c-.442 0-6.766-1.813-7.208-2.123s-1.459-1.68-.84-2.653 1.504-1.636 1.504-1.636-1.282-3.98-.973-6.324 2.432-3.626 3.891-4.024c1.504-.442 1.902-1.061 1.902-1.061s.752-.929 1.061-1.459 1.15-.973 1.15-.973l.221-.973s-.84-2.653-.442-3.494c.442-.84 2.123-1.371 2.653-3.184s.84-6.456 2.432-9.242c1.592-2.742 1.415-2.078 2.565-3.272 1.106-1.194 3.184-4.289 3.582-5.041.442-.752 1.901-2.432 1.901-3.493s-1.282-9.95-.973-12.824 1.371-4.997 2.653-6.677 3.184-3.405 3.184-3.405S37.395 0 40.137 0s6.456.973 8.181 2.432c1.68 1.503 3.936 2.565 4.864 5.306.619 2.123 1.459 6.722 1.636 8.137s-.31 3.715-.044 5.66c.265 1.902 1.017 3.228 1.592 4.024s8.49 10.613 9.861 16.008 1.15 8.269 1.15 9.64-.442 3.184-.442 3.184 1.194.486 1.725 1.327.31 4.289.398 4.732c.133.442.752 1.194 1.15 1.504s1.548 1.15 2.211 1.238c.619.088 1.857 1.105 2.078 2.078s.531 1.99-.619 2.742-6.766 3.936-7.12 4.245c-.442.354-3.184 2.874-3.626 3.405s-2.83 2.034-3.67 2.123-4.157.221-6.412-1.68c-.929-.796-2.565-2.565-4.024-2.874l-5.749-1.061s-.486-.265-1.769.044z" fill="#000"/><path d="M10.907 70.753l6.058 1.901 9.419 2.874c.752.089 4.289 1.194 5.572.265 1.282-.973 3.449-3.494 1.194-7.341-2.344-4.024-3.803-4.776-3.803-4.776l-1.813-2.211-1.282-2.123s-.752-2.122-1.371-2.742-.752-2.034-2.344-2.874c-1.105-.575-3.405-.663-4.245-.044s-2.565 2.963-2.565 2.963-2.432.663-2.963.973-1.813 1.371-2.034 2.123-.442 2.034-.088 3.272l.84 3.626c.221.354.133.84.133.84s-1.857.84-1.857 1.592.619 1.327.619 1.327l.531.354z" fill="#f5c65d"/><path d="M17.186 71.019l2.034.619 8.181 2.609c.752.088 2.432.531 3.715-.442s3.405-1.901 1.813-5.218c-1.946-4.024-3.803-4.776-3.803-4.776l-1.68-2.123-1.415-2.211s-.752-1.857-1.371-2.742c-.531-.752-1.238-2.432-2.432-2.874-1.15-.442-3.007-.707-3.847-.044-.84.619-1.901 2.609-1.901 2.609s-1.282 2.123-1.813 2.432-1.504 1.68-1.68 2.432c-.221.752-.088 1.061.221 2.344s1.415 2.786 1.327 3.095-.398.973-.398.973-.884.575-.884 1.327 2.255 1.282 2.255 1.282l1.68.708z" fill="#f7d285"/><path d="M53.005 74.821s-1.459-1.017-1.371-3.582c.089-3.361 1.238-4.643 1.238-5.97s-.221-2.919-.221-2.919l-.177-5.926c.177-1.327.796-2.565 1.725-2.697s2.255.84 2.476 1.194l1.503 2.874s1.105 1.901 2.3 1.813 3.449-3.582 4.687-4.334c.796-.486 1.99-.442 2.344-.221s1.061.973 1.15 1.857c.088.84-.354 2.697-.133 3.626s1.194 1.99 1.99 2.476 2.83 1.282 3.184 1.769.796 1.636.088 2.344-2.388 1.548-2.388 1.548l-2.476 1.548-2.565 1.504c-.442.354-3.051 2.83-3.67 3.317s-1.327 1.415-2.3 1.725c-.752.221-2.653.575-3.538.221l-2.123-.884-1.725-1.282z" fill="#f5c860"/><path d="M55.349 60.759s-.309.707-.133 1.415c.221.708-.089 2.83-.486 4.245-.442 1.415-1.548 2.919-.708 4.953s3.759 3.98 5.572 3.803c1.857-.133 4.245-2.609 5.306-3.317s4.024-1.68 4.511-2.123 2.034-.84 2.388-1.194 2.299-1.282 2.299-2.123.133-1.371-.796-1.99-2.697-1.415-2.919-1.548-1.504-1.504-1.68-1.769c-.221-.265-.221-2.211-.265-2.697-.088-.486-1.282-.973-1.99-.84s-1.636 1.327-2.697 2.918c-1.061 1.548-1.857 2.034-2.565 2.034s-2.255-.265-2.963-.796c-.708-.486-1.327-1.371-2.034-1.415s-.84.442-.84.442z" fill="#f7d285"/><path d="M33.725 24.852a5.31 5.31 0 0 0 1.548.84c.708.575 2.388 1.901 4.113 1.99 1.68.089 2.742-.265 3.67-1.194s1.769-1.857 2.211-2.034c.442-.221 1.327-.575 1.327-.575l1.415-1.15s.133 1.68.619 2.742 1.901 2.963 2.255 4.599.708 3.67 1.504 4.82 3.272 4.024 3.803 6.014c.575 1.99 1.282 5.395.796 7.473-.486 2.123-.84 5.439-.84 5.439s-.973-.619-1.636-.619c-.619 0-.973.133-1.548.575-.708.486-1.194 2.123-1.194 2.963v5.66l-2.919 2.565c-.442.486-4.245 3.759-5.218 4.157-.973.442-4.599 1.548-6.589.619s-2.521-1.017-2.742-1.327l-3.184-3.936-.354-.398s2.167.265 2.786-.619c.619-.929.752-1.901.442-2.609-.442-1.061-.884-1.769-1.548-2.476-1.459-1.503-4.599-3.184-5.041-3.626s-2.918-2.918-3.095-3.98c-.221-1.061-.619-3.051.133-4.997.796-1.99 2.83-4.732 3.405-6.147s.973-2.83.973-3.803-.088-1.902.486-2.963 1.282-1.636 1.857-2.388c.575-.796 1.68-1.857 2.123-2.963.442-1.15.442-2.255.442-2.255v-.398z" fill="#fff"/><path d="M36.732 43.071l-.752 5.793c-.354 2.521-.088 4.909-.088 7.429 0-.088.354-.354.354-.531 0-2.521-.265-4.953.089-7.429l.752-5.793c0 .088-.309.354-.354.531z" fill="silver"/><path d="M51.855 33.873s-1.504.796-1.902.84c-.442.088-2.565.265-2.963.265-.442 0-.796.442-.575.619.221.221 3.316 1.194 4.112 1.68s2.83 1.415 3.803 1.68 1.282.221 1.282.221l-1.194-2.034c-.265-.265-.575-.796-1.194-1.415s-.84-1.194-.973-1.504c-.133-.265-.354-.575-.354-.575m-22.152-1.502s.133 1.548.575 2.255 1.503 1.769 1.503 1.769-2.742 1.327-3.095 1.857l-.354.486.177-1.061.354-1.238c.088-.486.044-1.371.044-2.123-.088-.84.796-1.946.796-1.946zm26.4 21.669l.133-.84s-1.327-.84-2.432-.84c-1.15 0-2.255.708-2.521 1.105-.265.442-1.282 2.123-1.504 3.405-.133.929.088 3.405.354 4.334s.265 2.565.265 2.565l1.371-1.15.088-2.83c0-.796-.221-2.432 0-3.493s.486-1.504 1.106-2.3c.663-.796 1.946-.486 2.344-.309l.796.354z" fill="#c4c4c4"/><path d="M37.837 15.654c-.221 1.99-1.902 3.626-3.405 3.449s-2.388-1.592-2.167-3.582 1.99-3.759 3.493-3.582 2.255 1.725 2.078 3.714zM48.45 15.3c-.133 1.238-1.327 3.051-2.432 3.626-.619.309-1.504-.575-2.211-1.017-1.592-1.017-2.565-.884-2.344-2.874s2.034-3.715 3.936-3.538A3.39 3.39 0 0 1 48.45 15.3z" fill="#fff"/><path d="M37.572 16.273c0 1.15-.84 2.078-1.857 2.078s-1.857-.929-1.857-2.078.84-2.078 1.857-2.078 1.857.929 1.857 2.078zm8.756-.221c0 1.15-.84 2.078-1.857 2.078-.398 0-.752-.133-1.017-.354a2.21 2.21 0 0 1-.796-1.725c0-1.15.84-2.078 1.857-2.078.973-.044 1.813.885 1.813 2.078z" fill="#000"/><path d="M36.644 15.168c0 .354-.265.619-.575.619s-.575-.265-.575-.619.265-.619.575-.619c.354.044.575.31.575.619zm9.286.575c0 .354-.265.619-.575.619s-.575-.265-.575-.619.265-.619.575-.619.575.309.575.619z" fill="#fff"/><path d="M47.787 20.386l-.177 1.238-.884.531c-.177.088-1.282.354-1.592.354s-1.15.486-1.857.575-1.371.796-1.592 1.105-1.15.84-1.415.973c-.265.088-1.105.442-1.548.354-.442-.044-1.282-.31-1.415-.486-.177-.177-1.504-.354-1.504-.354l-.929-.531-.752-.619-.531-.486-.354-.354.486.177s.884.796 1.327 1.061 1.371.265 1.68.354 1.017.84 1.636.84 1.68-.221 2.211-.531 1.548-1.415 2.123-1.769c.575-.309 1.238-.708 1.813-.708s.884.044 1.548-.044c.708-.088 1.061-.442 1.15-.752s.088-1.061.088-1.061l-1.415-.707s-1.15-.531-1.415-.796-1.548-1.282-2.034-1.415c-.486-.177-.84-.531-1.68-.531s-1.592-.31-2.211.044-1.592 1.061-1.769 1.327-1.061.708-1.371.752-1.017.486-1.282.619c-.265.177-.884.442-1.238 1.238-.31.796-.442 1.946 0 2.565.442.575 1.769 1.504 2.344 1.636.575.177 1.548 1.238 1.857 1.371.31.177 1.327.752 2.344.84s1.813.221 2.609-.309 1.504-1.415 2.123-1.901 1.327-1.238 1.813-1.327 1.061-.442 1.282-.575c.221-.177.973-.752.973-1.238l.044-1.415-.486-.221" fill="#f3c55c"/><g fill="#f8d281"><path d="M45.001 19.28s-.708.265-.884.177c-.221-.088-2.432-1.238-3.007-1.238s-3.184.442-3.891.884c-.707.486-1.946 1.282-2.167 1.901s-.044 1.548.619 1.857c.708.31 1.504.619 1.946 1.282.486.619.486 1.017 1.061 1.017s1.238-.221 1.769-.575 1.548-1.194 2.167-1.68 1.061-.708 1.769-.708 1.813 0 2.255-.221.619-.31.619-.619.354-.796.089-1.061-1.327-.619-1.636-.796c-.354-.133-.708-.221-.708-.221z"/><path d="M36.865 25.073s1.769 1.415 2.344 1.415 1.282.265 1.548.265c.133 0-.221.177.84-.133l-.088.354s1.105-.398 1.327-.84c.354-.663 1.371-1.105 1.504-1.282.221-.442.929-.884 1.415-1.15s.708-.265 1.15-.442c.309-.133 1.238-1.194 1.238-1.194l-.796-.088-2.078.531c-.177 0-1.282.531-1.813.531-.708 0-1.592 1.017-1.769 1.238s-1.106.796-1.106.796l-1.371.486-1.238-.221-1.105-.265z"/></g></svg>
